X:268
T: WENN ICH ANS HEIRATHEN DENKE
N: E0864
O: Europa, Mitteleuropa, Deutschland, Hessen, Wetterau, Friedberg
R: Hochzeits -, Ehestands - Lied
M: 2/4
L: 1/16
K: Bb
F2 | B2B2B2B2 | B3GF4
G4G2G2 | F3ED2
F2 | D2F2D2F2 | B4d2
d2 | d2c2d2c2 | B4z2
f2 | c3BA2B2 | c4z2
f2 | c3BA2G2 | F3GF2
E2 | D2F2D2F2 | B4B2
B2 | c2c2c2c2 | d3cB2
B2 | d2d2e2c2 | B4z2

